T: Boys From Wexford, The
M: 4/4
L: 1/8
K: Gmaj
D2 |G3 A GF ED | d4 d2 e2 | d2 B2 G2 A2 | E5 D2 |
G3 A GF ED | d4 d2 e2 | d2 B2 G2 A2 | G5 ||
d2 |e2 e2 c2 e2 | d4 d2 e2 | d2 B2 G2 A2 | E6 D2 |
G3 A GF ED | d4 d2 e2 | d2 B2 G2 A2 | G5  |]
